source/images/i-monitoring.svg

<svg height="40" viewBox="0 0 40 40" width="40" xmlns="http://www.w3.org/2000/svg"><g fill="#1794c7" fill-rule="evenodd" transform="translate(5 .379647)"><path d="m23.8811429 3.16h-5.8617143v2.37828571h4.7542857c.6548571 0 1.1862857.53142858 1.1862857 1.18514286v27.38285713c0 .6571429-.5314286 1.1862857-1.1862857 1.1862857h-19.07314287c-.66171429 0-1.19085714-.5291428-1.19085714-1.1862857v-27.38285713c0-.65371428.52914285-1.18514286 1.19085714-1.18514286h4.81942857v-2.37828571h-6.01028571c-1.312 0-2.37714286 1.06171429-2.37714286 2.37828571v29.75999999c0 1.3097143 1.06514286 2.3702857 2.37714286 2.3702857h21.37142861c1.312 0 2.456-1.0605714 2.456-2.3702857v-29.75999999c0-1.31657142-1.144-2.37828571-2.456-2.37828571"/><path d="m6.76342857 7.52342857v1.256h12.93714283v-1.256c0-.34742857-.4171428-.63314286-.9188571-.63314286h-2.7634286v-5.14628571c-2.8297143-2.01371429-5.5862857-.04228571-5.5862857-.04228571l.0114286 5.18857142h-2.75771431c-.50742858 0-.92228572.28571429-.92228572.63314286z"/><path d="m22.0594286 17.648-9.5622857 9.5554286c-.2377143.2377143-.624.2377143-.8617143 0l-.1965715-.1908572-1.1085714-1.1074285-.0114286-.0251429-4.1348571-4.1577143c-.24-.2445714-.24-.632 0-.8697143l1.30514286-1.3028571c.23771428-.24.624-.24.86971428 0l3.71657146 3.7474286 7.8091428-7.816c.2365715-.2468572.632-.2468572.8697143 0l1.3051429 1.3028571c.2377143.2331429.2377143.6262857 0 .864"/></g></svg>

<?xml version="1.0" encoding="UTF-8" standalone="no"?>
<svg width="40px" height="40px" viewBox="0 0 40 40" version="1.1" xmlns="http://www.w3.org/2000/svg" xmlns:xlink="http://www.w3.org/1999/xlink" xmlns:sketch="http://www.bohemiancoding.com/sketch/ns">
    <!-- Generator: Sketch 3.5.2 (25235) - http://www.bohemiancoding.com/sketch -->
    <title>i-monitoring</title>
    <desc>Created with Sketch.</desc>
    <defs></defs>
    <g id="Features" stroke="none" stroke-width="1" fill="none" fill-rule="evenodd" sketch:type="MSPage">
        <g id="Desktop-HD" sketch:type="MSArtboardGroup" transform="translate(-752.000000, -5006.000000)" fill="#1794C7">
            <g id="All-Features" sketch:type="MSLayerGroup" transform="translate(338.000000, 4806.000000)">
                <g id="Elastic-Hosting" transform="translate(0.000000, 83.000000)" sketch:type="MSShapeGroup">
                    <g id="monitoring" transform="translate(413.000000, 117.000000)">
                        <g id="Icon" transform="translate(6.000000, 0.379647)">
                            <path d="M23.8811429,3.16 L18.0194286,3.16 L18.0194286,5.53828571 L22.7737143,5.53828571 C23.4285714,5.53828571 23.96,6.06971429 23.96,6.72342857 L23.96,34.1062857 C23.96,34.7634286 23.4285714,35.2925714 22.7737143,35.2925714 L3.70057143,35.2925714 C3.03885714,35.2925714 2.50971429,34.7634286 2.50971429,34.1062857 L2.50971429,6.72342857 C2.50971429,6.06971429 3.03885714,5.53828571 3.70057143,5.53828571 L8.52,5.53828571 L8.52,3.16 L2.50971429,3.16 C1.19771429,3.16 0.132571429,4.22171429 0.132571429,5.53828571 L0.132571429,35.2982857 C0.132571429,36.608 1.19771429,37.6685714 2.50971429,37.6685714 L23.8811429,37.6685714 C25.1931429,37.6685714 26.3371429,36.608 26.3371429,35.2982857 L26.3371429,5.53828571 C26.3371429,4.22171429 25.1931429,3.16 23.8811429,3.16" id="Fill-1"></path>
                            <path d="M6.76342857,7.52342857 L6.76342857,8.77942857 L19.7005714,8.77942857 L19.7005714,7.52342857 C19.7005714,7.176 19.2834286,6.89028571 18.7817143,6.89028571 L16.0182857,6.89028571 L16.0182857,1.744 C13.1885714,-0.269714286 10.432,1.70171429 10.432,1.70171429 L10.4434286,6.89028571 L7.68571429,6.89028571 C7.17828571,6.89028571 6.76342857,7.176 6.76342857,7.52342857 Z" id="Fill-3"></path>
                            <path d="M22.0594286,17.648 L12.4971429,27.2034286 C12.2594286,27.4411429 11.8731429,27.4411429 11.6354286,27.2034286 L11.4388571,27.0125714 L10.3302857,25.9051429 L10.3188571,25.88 L6.184,21.7222857 C5.944,21.4777143 5.944,21.0902857 6.184,20.8525714 L7.48914286,19.5497143 C7.72685714,19.3097143 8.11314286,19.3097143 8.35885714,19.5497143 L12.0754286,23.2971429 L19.8845714,15.4811429 C20.1211429,15.2342857 20.5165714,15.2342857 20.7542857,15.4811429 L22.0594286,16.784 C22.2971429,17.0171429 22.2971429,17.4102857 22.0594286,17.648" id="Fill-5"></path>
                        </g>
                    </g>
                </g>
            </g>
        </g>
    </g>
</svg>
